icons/strikethrough.svg

<svg viewBox="0 0 24 24" fill="currentColor" xmlns="http://www.w3.org/2000/svg">
    <path d="M17.1538 14C17.3846 14.5161 17.5 15.0893 17.5 15.7196C17.5 17.0625 16.9762 18.1116 15.9286 18.867C14.8809 19.6223 13.4335 20 11.5862 20C9.94674 20 8.32335 19.6185 6.71592 18.8555V16.6009C8.23538 17.4783 9.7908 17.917 11.3822 17.917C13.9333 17.917 15.2128 17.1846 15.2208 15.7196C15.2208 15.0939 15.0049 14.5598 14.5731 14.1173C14.5339 14.0772 14.4939 14.0381 14.4531 14H3V12H21V14H17.1538ZM13.076 11H7.62908C7.4566 10.8433 7.29616 10.6692 7.14776 10.4778C6.71592 9.92084 6.5 9.24559 6.5 8.45207C6.5 7.21602 6.96583 6.165 7.89749 5.299C8.82916 4.43299 10.2706 4 12.2219 4C13.6934 4 15.1009 4.32808 16.4444 4.98426V7.13591C15.2448 6.44921 13.9293 6.10587 12.4978 6.10587C10.0187 6.10587 8.77917 6.88793 8.77917 8.45207C8.77917 8.87172 8.99709 9.23796 9.43293 9.55079C9.86878 9.86362 10.4066 10.1135 11.0463 10.3004C11.6665 10.4816 12.3431 10.7148 13.076 11H13.076Z"/>
</svg>

<svg xmlns="http://www.w3.org/2000/svg" viewBox="0 0 24 24">
    <g>
        <path fill="none" d="M0 0h24v24H0z"/>
        <path d="M17.154 14c.23.516.346 1.09.346 1.72 0 1.342-.524 2.392-1.571 3.147C14.88 19.622 13.433 20 11.586 20c-1.64 0-3.263-.381-4.87-1.144V16.6c1.52.877 3.075 1.316 4.666 1.316 2.551 0 3.83-.732 3.839-2.197a2.21 2.21 0 0 0-.648-1.603l-.12-.117H3v-2h18v2h-3.846zm-4.078-3H7.629a4.086 4.086 0 0 1-.481-.522C6.716 9.92 6.5 9.246 6.5 8.452c0-1.236.466-2.287 1.397-3.153C8.83 4.433 10.271 4 12.222 4c1.471 0 2.879.328 4.222.984v2.152c-1.2-.687-2.515-1.03-3.946-1.03-2.48 0-3.719.782-3.719 2.346 0 .42.218.786.654 1.099.436.313.974.562 1.613.75.62.18 1.297.414 2.03.699z"/>
    </g>
</svg>
